cssgg/arrange-front.svg

<svg viewBox="0 0 24 24" xmlns="http://www.w3.org/2000/svg"><path fill-rule="evenodd" d="M3 3h8v4h6v6h4v8h-8v-4H7v-6H3V3Zm12 6H9v6h6V9Z"/></svg>

<svg
  width="24"
  height="24"
  viewBox="0 0 24 24"
  fill="none"
  xmlns="http://www.w3.org/2000/svg"
>
  <path
    fill-rule="evenodd"
    clip-rule="evenodd"
    d="M3 3H11V7H17V13H21V21H13V17H7V11H3V3ZM15 9H9V15H15V9Z"
    fill="currentColor"
  />
</svg>
